X:1
T:Title
%%score ( 1 2 ) { 3 | 4 }
L:1/8
Q:1/4=115
M:4/4
K:Eb
V:1 treble nm="Grand Piano, Staff"
V:2 treble 
V:3 bass nm="Choir Pad, Walsall, CM"
V:4 bass 
V:1
 [CF]2 [CA]2 GF C2 | [Fc]2 BA [B,G]2 [A,F]2 | z4 z2 .F2 | AB [=Ec]6 | [Ec]2 [Ec]2 [Ec]2 [EB]2 | %5
w: By~Attributed~to~H.~Purcell~(1658\-1695) * * * *|||||
 AG [DF]2 BA [EG]2 | [Ec]2 D-[D=E] FGAB | [=EG]>F F6- | F2 z2 z4 |] %9
w: ||||
V:2
 z4 C2 z2 | z2 D2 z4 | [FA]2 [CF]2 [B,=E]2 C-[CG] | F2 z2 z4 | x8 | E2 z2 F2 z2 | z2 .F2 z2 F2 | %7
 x8 | x8 |] %9
V:3
 A,2 F,2 F,2 =E,2 | A,2 F,2 =E,2 F,2 | C2 A,2 B,2 A,2 | F,2 G,6 | A,2 A,2 A,2 G,2 | %5
 A,2 A,2 D2 B,2 | A,2 A,2[K:treble] D2 CD | B,2 A,6- | A,2 z2 z4 |] %9
V:4
 F,,2 z2 A,,2 C,2 | F,,2 B,,2 C,2 z2 | F,2 z2 G,2 F,2 | D,2 C,6 | A,,2 C,2 A,,2 E,2 | %5
 C,2 D,2 B,,2 E,2 | A,,2 D,2 B,,2 C,B,, | C,2 F,,6- | F,,2 z2 z4 |] %9

